X: 2
T: The Flogging
R: reel
M: 4/4
L: 1/8
K: Gmaj
|:B~G3 BGdG|B~G3 (3Bcd gd|B~G3 BdcB|AGFG ABcA:||:~g3d BGBd|~g3d fgaf|~g3d BGBd|AGFG ABcA:||: (3Bcd gd Bdgd|Bdgd BGG2|Ac=fc Ac=fc|Ac=fc A=FF2|(3Bcd gd Bdgd|Bdef ~g3a|bgaf gdBd|AGFG ABcA|]


Tune 195	Setting 12851

